!! 00000] TT[WS
!!!OTL: Laicheng bainian
!!!ARE: Asia, China, Shanxi Liuliang
!! Ethnic Group: Han
!! WII, 175 (2)
!!!SCT: J0665
!!!YEM: Copyright 1995, estate of Helmut Schaffrath.
**kern
*ICvox
*Ivox
*M2/4
*k[f#]
*G:
{8g
8a
8dd
8gg
=1
8dd
8a
8g
16e
16g
=2
4a
8cc
8e
=3
8d
8A
4d}
=4
{8g
8b
16a
16b
16a
16g
=5
8d
16e
16d
4B
=6
8g
8b
16a
16b
16a
16g
=7
8d
16e
16d
4B}
=8
{8dd
16b
16b
8dd
8b
=9
4.a
8b}
=10
{8g
8a
8dd
8dd
=11
8b
8a
8g
16e
16g
=12
8b
8a
8a
8d
=13
8.e
16b
8a
8b
=14
2d}
==
!!!AGN: Xiaodiao, Qingge
!!!ONB: ESAC (Essen Associative Code) Database: CHINA
!!!AMT: simple duple
!!!AIN: vox
!!!EED: Helmut Schaffrath
!!!EEV: 1.0
*-
